X: 4861
T: Braes Of Ballenden, The
R: waltz
M: 3/4
K: Fmajor
B>c|{B/c/}d2f2 f<g|f4 (g/a/b)|(gf)(ed) cB|{d}c4 B<c|
d2f2 (fg/a/)|{a}b3ag2|f>g f<d c>B|B4:|
|:{F} D<E|F2 FG B<F|G2 (B>c) (cB/4c/4)|d2c2 (d/c/B)|G4 (fg/a/)|b2 B2 (Bc/d/)|
c2d2 f<b|g2 f>e d<e|c4 Bc|d2f2 (fg/a/)|{a}b3ag2|f>g f<d cB|
G4 e2|d2f2F2|G2B2 g<b|f>g f<d c>B|B4:|

